src/components/icons/twitter.svg

<svg xmlns="http://www.w3.org/2000/svg" width="97" height="97" viewBox="0 0 97 97" fill="none">
  <rect width="97" height="97" rx="15" fill="#1DA1F2" fill-opacity="0.3"/>
  <path d="M37.3787 73.296C60.6183 73.296 73.3329 54.3284 73.3329 37.8848C73.3329 37.3515 73.3209 36.8065 73.2968 36.2732C75.7702 34.5115 77.9047 32.3294 79.6 29.8294C77.2965 30.8388 74.8507 31.4981 72.3464 31.7846C74.9833 30.2279 76.9577 27.7823 77.9036 24.9012C75.4229 26.3492 72.71 27.3706 69.8812 27.9217C67.9752 25.927 65.4551 24.6063 62.7105 24.1638C59.966 23.7212 57.1499 24.1815 54.6975 25.4733C52.2452 26.7652 50.2933 28.8168 49.1435 31.3108C47.9938 33.8049 47.7103 36.6025 48.3368 39.2712C43.3137 39.0229 38.3997 37.7378 33.9133 35.499C29.4269 33.2603 25.4682 30.118 22.294 26.2757C20.6806 29.0153 20.1869 32.2571 20.9132 35.3423C21.6395 38.4275 23.5313 41.1245 26.2041 42.8853C24.1975 42.8226 22.2349 42.2905 20.4784 41.333V41.487C20.4766 44.362 21.4858 47.1489 23.3343 49.3739C25.1829 51.5989 27.7567 53.1248 30.6184 53.6921C28.7596 54.193 26.8088 54.266 24.9168 53.9054C25.7243 56.3779 27.2954 58.5404 29.4108 60.0911C31.5263 61.6418 34.0805 62.5034 36.717 62.5556C32.241 66.0185 26.7117 67.8968 21.0198 67.8879C20.0104 67.8864 19.002 67.8254 18 67.7054C23.7823 71.3591 30.5087 73.2996 37.3787 73.296Z" fill="#1DA1F2"/>
</svg>

<svg width="97" height="97" fill="none" xmlns="http://www.w3.org/2000/svg"><rect width="97" height="97" rx="5" fill="#1DA1F2" fill-opacity=".3"/><path d="M37.379 73.296c23.24 0 35.954-18.968 35.954-35.411 0-.533-.012-1.078-.036-1.612A25.454 25.454 0 0 0 79.6 29.83a25.216 25.216 0 0 1-7.254 1.956 12.55 12.55 0 0 0 5.558-6.884 25.641 25.641 0 0 1-8.023 3.02 12.715 12.715 0 0 0-7.17-3.757 12.824 12.824 0 0 0-8.014 1.31 12.543 12.543 0 0 0-5.553 5.837 12.291 12.291 0 0 0-.807 7.96A36.325 36.325 0 0 1 33.913 35.5a35.796 35.796 0 0 1-11.619-9.223 12.298 12.298 0 0 0-1.38 9.066 12.462 12.462 0 0 0 5.29 7.543 12.8 12.8 0 0 1-5.726-1.552v.154a12.327 12.327 0 0 0 2.856 7.887 12.668 12.668 0 0 0 7.284 4.318c-1.858.501-3.81.574-5.701.213a12.48 12.48 0 0 0 4.494 6.186 12.79 12.79 0 0 0 7.306 2.465 25.595 25.595 0 0 1-15.697 5.332 25.718 25.718 0 0 1-3.02-.183 36.254 36.254 0 0 0 19.379 5.591Z" fill="#1DA1F2"/></svg>
